X: 1
T: Port Atholl
M: 3/4
L: 1/8
R: waltz
K: Gmaj
D2 |: GA | B4 B2 | B3 A (B/2A/2G) |E4 E2 |
E3 BAG | (AB) D2 D2  | D3 BAB | G4 G2 | GEDE:|
GA | B4 B2 | B3 A (B/2A/2G) | A3 GAB |A4 G2 |
B2 d2 e2 | g3 edB | A3 GAB | A4 G2 | E3 DEG |
B3 A (B/2A/2G) | g4 g2 | g3 fed | B3 ABd | g3 edB |
A3 GAB | e4 e2 | e3 BAG | AB E2 E2 | E3 e (d/2B/2A/2G/2) |
AB D2 D2 | D3 (BAB) | G4 G2 | GEDE GA |
B4 B2 | B3 A (B/2A/2G) | A3 GAB |A4 G2 |
B2 d2 e2 | g3 edB | A3 GAB | A4 G2 | E3  DEG |
B3 A (B/2A/2G) | g4 g2 | g3 fed | B3 ABd | g3 edB |
A3 GAB | e4 e2 | e3 bag | ab d2 d2 |
d3  bab | g4 g2 | gedega | b4 b2 | b3 a (b/2a/2g) |
a3 gab | a4 g2 | e3 deg | b3 a (b/2a/2g) | ef g2 g2 |
g3 fed | B3  ABd | g3 edB | A3 GAB | e4 e2 | e3 BAG |
AB E2 E2 | E3 e (d/2B/2A/2G/2) | AB D2 D2 | D3 BAB |
G4 G2 | GEDE :| &quot;Trill and fade...&quot; GA ({A}G4 | G6) ||
